Numix-GalliumOS/16/actions/mail-mark-notjunk.svg

<svg width="16" xmlns="http://www.w3.org/2000/svg" viewBox="0 0 4.5155557 4.5155557" height="16">
<g transform="translate(0 .56444)">
<path style="fill:#268bd2" d="M 0.28222223,0.56447648 C 0,0.56447648 0,0.56444338 0,0.84666568 L 0,3.668888 c 0,0.2822222 -4.9194439e-8,0.2822222 0.28222223,0.2822222 l 3.95111117,0 c 0.2822223,0 0.2822223,0 0.2822223,-0.2822222 0,-0.9083989 0,-2.2974207 0,-2.82222232 0,-0.2822223 0,-0.2821895 -0.2822223,-0.2821895 z"/>
</g>
<g style="fill-opacity:.1" transform="translate(0 .56444)">
<path style="fill:#fff" d="M 0.12347223,0.56640108 C 0.00440972,0.57961508 0,0.63687508 0,0.84829708 L 2.2577778,2.2577768 4.5155557,0.84829708 c 0,-0.281896 0,-0.281896 -0.2822223,-0.281896 l -3.95111117,0 c -0.0705556,0 -0.1190625,-0.0044 -0.15875,0 z"/>
<path d="m 4.5155557,0.84666558 -2.2577779,1.41111122 2.2577779,1.4111111 0,-2.82222232 z"/>
</g>
<g style="fill:#dc322f;fill-opacity:0" transform="matrix(.19956 -.19956 .19956 .19956 -.94954 1.27547)">
<path d="M 0.62499842,14.032613 2.039212,15.446827 5.574746,11.911293 4.1605324,10.497079 z"/>
<path d="m 1.3321052,9.0828657 5.6568544,0 0,5.6568543 z"/>
</g>
<path style="fill:#cb4b16" d="M 1.9755556,0.84666669 C 1.4111112,3.3866668 2.5400001,3.1044445 3.668889,3.9511112 c 0.2822222,-0.5644444 0,-0.5644444 0,-0.8466667 0,0 0.2822222,-0.2822222 0.5644445,0.2822223 0,-0.2822223 0.8466667,-1.6933334 -0.5644445,-2.82222234 C 3.6601064,1.1147053 3.3866668,1.1288889 3.3866668,1.1288889 3.1044445,0.84666669 3.1044445,0.84666669 3.1044445,0.56444446 c 0,-0.25212435 0.041665,-0.60610944 0,-0.56444446 C 2.7206789,0.38376544 2.5400001,0.81968088 2.5400001,1.1288889 l 0,0.2822223 c 0,0 -0.2822222,0 -0.5644445,-0.56444451 z"/>
<path style="fill:#dc322f;fill-rule:evenodd" d="m 2.8222324,4.3843009 c -2.765e-4,0.03589 0.00509,0.07743 0.013073,0.1244117 0.065406,0.00917 0.1204649,0.00567 0.1699473,-1e-7 0.015821,-4.306e-4 0.030723,0.0019 0.045755,0 0.048318,-0.00612 0.095546,-0.023971 0.1372652,-0.058932 0.013904,-0.011657 0.025871,-0.022888 0.039219,-0.039288 0.076798,-0.071455 0.1486356,-0.1479368 0.2222389,-0.2226323 L 3.6719695,3.9652287 c 0.073265,0.075029 0.1486355,0.1479359 0.2222387,0.2226314 0.074107,0.074162 0.1465028,0.1500581 0.2222385,0.2226312 0.011133,0.015488 0.026657,0.027954 0.039219,0.039288 0.014819,0.013365 0.029289,0.024233 0.045755,0.03274 0.030426,0.01572 0.063799,0.022209 0.098047,0.026192 0.021454,0.0025 0.04316,0.00665 0.065365,0.00655 0.010314,5.642e-4 0.021598,1.752e-4 0.032682,0 0.037918,-0.00138 0.074108,-0.00594 0.1111192,-0.00655 0.00525,-0.037625 0.00604,-0.07294 0.00654,-0.1047673 8.89e-5,-0.00595 8.15e-5,-0.013862 0,-0.019644 -2.105e-4,-0.014763 -0.00518,-0.025539 -0.00654,-0.039288 -2.15e-4,-0.00224 2.519e-4,-0.00434 0,-0.00655 C 4.5063174,4.271188 4.4970121,4.2076373 4.4498064,4.1551155 4.43817,4.1411875 4.4269592,4.1291988 4.4105874,4.1158272 L 3.9661108,3.670565 4.4105885,3.2253018 c 0.015461,-0.011152 0.027906,-0.026705 0.039219,-0.039288 0.013342,-0.014846 0.02419,-0.029341 0.032682,-0.045836 0.015331,-0.029153 0.022075,-0.059403 0.026146,-0.091672 0.0048,-0.036262 0.00807,-0.073307 0.00654,-0.1113156 -4.928e-4,-0.031828 -0.00128,-0.067141 -0.00654,-0.1047673 -0.068811,-0.011725 -0.1225802,-0.012514 -0.1699473,-0.00655 -0.018101,6.221e-4 -0.034822,0.00384 -0.052291,0.00655 -0.062927,0.00976 -0.1248493,0.035466 -0.1699479,0.098221 C 4.0396513,3.0020979 3.9678128,3.07858 3.8942095,3.1532754 L 3.6719686,3.3759109 3.2274914,2.9306483 c -0.013347,-0.0164 -0.025316,-0.027631 -0.039219,-0.039288 -0.014998,-0.013005 -0.030004,-0.02443 -0.045755,-0.032738 -0.027183,-0.014342 -0.055101,-0.021864 -0.084973,-0.026192 -0.00203,-5.124e-4 -0.00449,4.826e-4 -0.00654,0 -0.060667,-0.014175 -0.1294669,-0.012088 -0.2157023,2e-7 -0.011703,0.068928 -0.012491,0.122799 -0.00654,0.1702476 0.00243,0.016942 0.00186,0.036823 0.00654,0.052384 0.00182,0.00649 0.00433,0.01332 0.00654,0.019644 0.011908,0.055705 0.035159,0.1099635 0.091509,0.1506039 0.071328,0.076933 0.1476751,0.148899 0.2222388,0.2226322 0.074564,0.073733 0.1473421,0.149236 0.2222385,0.2226312 -0.07479,0.071374 -0.1492735,0.1429593 -0.222239,0.2160835 -0.0011,0.00108 0.0011,0.00546 0,0.00655 -0.074564,0.073732 -0.150911,0.1456982 -0.2222389,0.2226312 -0.015461,0.011153 -0.027904,0.026704 -0.039219,0.039288 -0.00784,0.00873 -0.013517,0.016867 -0.01961,0.026192 -0.00325,0.00496 -0.010282,0.00798 -0.013073,0.013096 -0.00102,0.00192 9.487e-4,0.00462 0,0.00655 -0.013734,0.026691 -0.02169,0.055391 -0.026146,0.085123 -5.114e-4,0.00403 3.854e-4,0.00901 0,0.013096 -0.00632,0.026174 -0.012833,0.053937 -0.013073,0.085124 z"/>
</svg>

<svg viewBox="0 0 4.5155557 4.5155557" width="16" height="16" xmlns="http://www.w3.org/2000/svg">
 <g transform="matrix(1 0 0 1 0 0.564)">
  <path d="m 0.282 0.564 c -0.282 0 -0.282 0 -0.282 0.282 l 0 2.822 c 0 0.282 0 0.282 0.282 0.282 l 3.951 0 c 0.282 0 0.282 0 0.282 -0.282 0 -0.908 0 -2.297 0 -2.822 0 -0.282 0 -0.282 -0.282 -0.282 z" style="fill:#268bd2"/>
 </g>
 <g style="fill-opacity:0.1" transform="matrix(1 0 0 1 0 0.564)">
  <path d="m 0.123 0.566 c -0.119 0.013 -0.123 0.07 -0.123 0.282 l 2.258 1.409 2.258 -1.409 c 0 -0.282 0 -0.282 -0.282 -0.282 l -3.951 0 c -0.071 0 -0.119 -0.004 -0.159 0 z" style="fill:#fff"/>
  <path d="m 4.516 0.847 -2.258 1.411 2.258 1.411 0 -2.822 z"/>
 </g>
 <g style="fill:#dc322f;fill-opacity:0" transform="matrix(0.19956 -0.19956 0.19956 0.19956 -0.95 1.275)">
  <path d="m 0.625 14.03 1.414 1.414 3.536 -3.536 -1.414 -1.414 z"/>
  <path d="m 1.332 9.08 5.657 0 0 5.657 z"/>
 </g>
 <path d="m 1.976 0.847 c -0.564 2.54 0.564 2.258 1.693 3.104 c 0.282 -0.564 0 -0.564 0 -0.847 0 0 0.282 -0.282 0.564 0.282 0 -0.282 0.847 -1.693 -0.564 -2.822 c -0.009 0.55 -0.282 0.564 -0.282 0.564 -0.282 -0.282 -0.282 -0.282 -0.282 -0.564 c 0 -0.252 0.042 -0.606 0 -0.564 c -0.384 0.384 -0.564 0.82 -0.564 1.129 l 0 0.282 c 0 0 -0.282 0 -0.564 -0.564 z" style="fill:#f27d0c"/>
 <path d="m 2.822 4.384 c 0 0.036 0.005 0.077 0.013 0.124 0.065 0.009 0.12 0.006 0.17 0 0.016 0 0.031 0.002 0.046 0 0.048 -0.006 0.096 -0.024 0.137 -0.059 0.014 -0.012 0.026 -0.023 0.039 -0.039 0.077 -0.071 0.149 -0.148 0.222 -0.223 l 0.222 -0.223 c 0.073 0.075 0.149 0.148 0.222 0.223 0.074 0.074 0.147 0.15 0.222 0.223 0.011 0.015 0.027 0.028 0.039 0.039 0.015 0.013 0.029 0.024 0.046 0.033 0.03 0.016 0.064 0.022 0.098 0.026 0.021 0.003 0.043 0.007 0.065 0.007 0.01 0.001 0.022 0 0.033 0 0.038 -0.001 0.074 -0.006 0.111 -0.007 0.005 -0.038 0.006 -0.073 0.007 -0.105 0 -0.006 0 -0.014 0 -0.02 0 -0.015 -0.005 -0.026 -0.007 -0.039 0 -0.002 0 -0.004 0 -0.007 c -0.002 -0.067 -0.012 -0.131 -0.059 -0.183 -0.012 -0.014 -0.023 -0.026 -0.039 -0.039 l -0.444 -0.445 0.444 -0.445 c 0.015 -0.011 0.028 -0.027 0.039 -0.039 0.013 -0.015 0.024 -0.029 0.033 -0.046 0.015 -0.029 0.022 -0.059 0.026 -0.092 0.005 -0.036 0.008 -0.073 0.007 -0.111 0 -0.032 -0.001 -0.067 -0.007 -0.105 -0.069 -0.012 -0.123 -0.013 -0.17 -0.007 -0.018 0.001 -0.035 0.004 -0.052 0.007 -0.063 0.01 -0.125 0.035 -0.17 0.098 c -0.077 0.071 -0.149 0.148 -0.222 0.223 l -0.222 0.223 -0.444 -0.445 c -0.013 -0.016 -0.025 -0.028 -0.039 -0.039 -0.015 -0.013 -0.03 -0.024 -0.046 -0.033 -0.027 -0.014 -0.055 -0.022 -0.085 -0.026 -0.002 -0.001 -0.004 0 -0.007 0 -0.061 -0.014 -0.129 -0.012 -0.216 0 -0.012 0.069 -0.012 0.123 -0.007 0.17 0.002 0.017 0.002 0.037 0.007 0.052 0.002 0.006 0.004 0.013 0.007 0.02 0.012 0.056 0.035 0.11 0.092 0.151 0.071 0.077 0.148 0.149 0.222 0.223 0.075 0.074 0.147 0.149 0.222 0.223 -0.075 0.071 -0.149 0.143 -0.222 0.216 -0.001 0.001 0.001 0.005 0 0.007 -0.075 0.074 -0.151 0.146 -0.222 0.223 -0.015 0.011 -0.028 0.027 -0.039 0.039 -0.008 0.009 -0.014 0.017 -0.02 0.026 -0.003 0.005 -0.01 0.008 -0.013 0.013 -0.001 0.002 0.001 0.005 0 0.007 -0.014 0.027 -0.022 0.055 -0.026 0.085 -0.001 0.004 0 0.009 0 0.013 -0.006 0.026 -0.013 0.054 -0.013 0.085 z" style="fill:#dc322f;fill-rule:evenodd"/>
</svg>
